X:1
T:Sound the Bells
L:1/8
M:4/4
I:linebreak $
K:C
V:1 bass nm="Bass Trombone" snm="B. Trb."
V:1
!f! z2 !>!F,,2- F,,G,F,C, | C,B,, z _E !4!D!<(!C!4!DD,!<)! | %2
[M:3/2] F,G, C,2- C, !>!_B,,3 _B,3 F,- |[M:4/4] F, z !>!C6- | C z !>!C4 A,C |$ %5
 !^!C C3- C2!<(! E,C!<)! | !^!DC z ._E, .F,._B, !>!G,2- | G,2 z _B,, C,!<(!D,_E,F,!<)! | %8
 F,G,_A,G,, _A,,_B,,C,D, | DC _E2 F,2!<(! _B,D,!<)! |$!ff! C,C,C,C, C,C,A,,C, | %11
 !^!D,C,C,C, C,C,A,,C, | !^!D,C,C,C, C,C,A,,D, | D, z z2 z4 |] %14
